X:29
T:Reel 29
M:4/4
K:Dmaj
L:1/8
 (3ABc |d>D (3DDD DEFA|BcdB BAFA|GEEF EEEeefge |edcB AGFE|D>D (3DDD FDFA|BcdA BAFA|GFED GFED|BAGF E2|GA|GABc dcBc|dcdB AFDF|GFE (3FED FAFD|EDEF GABc|dcdA FAFA|BdcB  (3ABA FA|GFED cABd|cedc d2|
